static/img/kroki/26996a8ed3c91b5466d7aba4012b005b.svg

<?xml version="1.0" encoding="us-ascii" standalone="no"?><svg xmlns="http://www.w3.org/2000/svg" xmlns:xlink="http://www.w3.org/1999/xlink" contentStyleType="text/css" height="741px" preserveAspectRatio="none" style="width:353px;height:741px;" version="1.1" viewBox="0 0 353 741" width="353px" zoomAndPan="magnify"><defs/><g><!--class azure_resource_group--><g id="elem_azure_resource_group"><rect codeLine="23" fill="#3D176E" height="74.0859" id="azure_resource_group" rx="2.5" ry="2.5" style="stroke:#000D19;stroke-width:0.5;" width="225" x="32.5" y="660.14"/><ellipse cx="47.5" cy="680.0345" fill="#ADD1B2" rx="11" ry="11" style="stroke:#181818;stroke-width:1.0;"/><path d="M50.4688,685.6752 Q49.8906,685.972 49.25,686.1127 Q48.6094,686.2689 47.9063,686.2689 Q45.4063,686.2689 44.0781,684.6283 Q42.7656,682.972 42.7656,679.847 Q42.7656,676.722 44.0781,675.0658 Q45.4063,673.4095 47.9063,673.4095 Q48.6094,673.4095 49.25,673.5658 Q49.9063,673.722 50.4688,674.0189 L50.4688,676.7377 Q49.8438,676.1595 49.25,675.8939 Q48.6563,675.6127 48.0313,675.6127 Q46.6875,675.6127 46,676.6908 Q45.3125,677.7533 45.3125,679.847 Q45.3125,681.9408 46,683.0189 Q46.6875,684.0814 48.0313,684.0814 Q48.6563,684.0814 49.25,683.8158 Q49.8438,683.5345 50.4688,682.9564 L50.4688,685.6752 Z " fill="#000000"/><text fill="#D9B8FF" font-family="Helvetica" font-size="17" lengthAdjust="spacing" textLength="183" x="66.5" y="685.9198">azure_resource_group</text><line style="stroke:#000D19;stroke-width:0.5;" x1="33.5" x2="256.5" y1="699.9291" y2="699.9291"/><text fill="#D9B8FF" font-family="sans-serif" font-size="14" font-weight="bold" lengthAdjust="spacing" textLength="98" x="43.5" y="721.9242">managed_by</text><text fill="#D9B8FF" font-family="sans-serif" font-size="14" lengthAdjust="spacing" textLength="48" x="141.5" y="721.9242">: string</text></g><!--class group--><g id="elem_group"><rect codeLine="26" fill="#3D176E" height="39.7891" id="group" rx="2.5" ry="2.5" style="stroke:#000D19;stroke-width:0.5;" width="90" x="7" y="469.06"/><ellipse cx="22" cy="488.9545" fill="#ADD1B2" rx="11" ry="11" style="stroke:#181818;stroke-width:1.0;"/><path d="M24.9688,494.5952 Q24.3906,494.892 23.75,495.0327 Q23.1094,495.1889 22.4063,495.1889 Q19.9063,495.1889 18.5781,493.5483 Q17.2656,491.892 17.2656,488.767 Q17.2656,485.642 18.5781,483.9858 Q19.9063,482.3295 22.4063,482.3295 Q23.1094,482.3295 23.75,482.4858 Q24.4063,482.642 24.9688,482.9389 L24.9688,485.6577 Q24.3438,485.0795 23.75,484.8139 Q23.1563,484.5327 22.5313,484.5327 Q21.1875,484.5327 20.5,485.6108 Q19.8125,486.6733 19.8125,488.767 Q19.8125,490.8608 20.5,491.9389 Q21.1875,493.0014 22.5313,493.0014 Q23.1563,493.0014 23.75,492.7358 Q24.3438,492.4545 24.9688,491.8764 L24.9688,494.5952 Z " fill="#000000"/><text fill="#D9B8FF" font-family="Helvetica" font-size="17" lengthAdjust="spacing" textLength="48" x="41" y="494.8398">group</text></g><!--class microsoft_resource--><g id="elem_microsoft_resource"><rect codeLine="29" fill="#3D176E" height="100.3828" id="microsoft_resource" rx="2.5" ry="2.5" style="stroke:#000D19;stroke-width:0.5;" width="214" x="132" y="438.76"/><ellipse cx="153.3" cy="458.6545" fill="#ADD1B2" rx="11" ry="11" style="stroke:#181818;stroke-width:1.0;"/><path d="M156.2688,464.2952 Q155.6906,464.592 155.05,464.7327 Q154.4094,464.8889 153.7063,464.8889 Q151.2063,464.8889 149.8781,463.2483 Q148.5656,461.592 148.5656,458.467 Q148.5656,455.342 149.8781,453.6858 Q151.2063,452.0295 153.7063,452.0295 Q154.4094,452.0295 155.05,452.1858 Q155.7063,452.342 156.2688,452.6389 L156.2688,455.3577 Q155.6438,454.7795 155.05,454.5139 Q154.4563,454.2327 153.8313,454.2327 Q152.4875,454.2327 151.8,455.3108 Q151.1125,456.3733 151.1125,458.467 Q151.1125,460.5608 151.8,461.6389 Q152.4875,462.7014 153.8313,462.7014 Q154.4563,462.7014 155.05,462.4358 Q155.6438,462.1545 156.2688,461.5764 L156.2688,464.2952 Z " fill="#000000"/><text fill="#D9B8FF" font-family="Helvetica" font-size="17" lengthAdjust="spacing" textLength="158" x="173.7" y="464.5398">microsoft_resource</text><line style="stroke:#000D19;stroke-width:0.5;" x1="133" x2="345" y1="478.5491" y2="478.5491"/><text fill="#D9B8FF" font-family="sans-serif" font-size="14" font-weight="bold" lengthAdjust="spacing" textLength="35" x="143" y="500.5442">etag</text><text fill="#D9B8FF" font-family="sans-serif" font-size="14" lengthAdjust="spacing" textLength="48" x="178" y="500.5442">: string</text><text fill="#D9B8FF" font-family="sans-serif" font-size="14" font-weight="bold" lengthAdjust="spacing" textLength="144" x="143" y="526.8411">provisioning_state</text><text fill="#D9B8FF" font-family="sans-serif" font-size="14" lengthAdjust="spacing" textLength="48" x="287" y="526.8411">: string</text></g><!--class resource--><g id="elem_resource"><rect codeLine="33" fill="#3D176E" height="310.7578" id="resource" rx="2.5" ry="2.5" style="stroke:#000D19;stroke-width:0.5;" width="227" x="31.5" y="7"/><ellipse cx="100.25" cy="26.8945" fill="#ADD1B2" rx="11" ry="11" style="stroke:#181818;stroke-width:1.0;"/><path d="M103.2188,32.5352 Q102.6406,32.832 102,32.9727 Q101.3594,33.1289 100.6563,33.1289 Q98.1563,33.1289 96.8281,31.4883 Q95.5156,29.832 95.5156,26.707 Q95.5156,23.582 96.8281,21.9258 Q98.1563,20.2695 100.6563,20.2695 Q101.3594,20.2695 102,20.4258 Q102.6563,20.582 103.2188,20.8789 L103.2188,23.5977 Q102.5938,23.0195 102,22.7539 Q101.4063,22.4727 100.7813,22.4727 Q99.4375,22.4727 98.75,23.5508 Q98.0625,24.6133 98.0625,26.707 Q98.0625,28.8008 98.75,29.8789 Q99.4375,30.9414 100.7813,30.9414 Q101.4063,30.9414 102,30.6758 Q102.5938,30.3945 103.2188,29.8164 L103.2188,32.5352 Z " fill="#000000"/><text fill="#D9B8FF" font-family="Helvetica" font-size="17" lengthAdjust="spacing" textLength="71" x="125.75" y="32.7798">resource</text><line style="stroke:#000D19;stroke-width:0.5;" x1="32.5" x2="257.5" y1="46.7891" y2="46.7891"/><text fill="#D9B8FF" font-family="sans-serif" font-size="14" font-weight="bold" lengthAdjust="spacing" textLength="29" x="42.5" y="68.7842">age</text><text fill="#D9B8FF" font-family="sans-serif" font-size="14" lengthAdjust="spacing" textLength="66" x="71.5" y="68.7842">: duration</text><text fill="#D9B8FF" font-family="sans-serif" font-size="14" font-weight="bold" lengthAdjust="spacing" textLength="43" x="42.5" y="95.0811">atime</text><text fill="#D9B8FF" font-family="sans-serif" font-size="14" lengthAdjust="spacing" textLength="70" x="85.5" y="95.0811">: datetime</text><text fill="#D9B8FF" font-family="sans-serif" font-size="14" font-weight="bold" lengthAdjust="spacing" textLength="43" x="42.5" y="121.3779">ctime</text><text fill="#D9B8FF" font-family="sans-serif" font-size="14" lengthAdjust="spacing" textLength="70" x="85.5" y="121.3779">: datetime</text><text fill="#D9B8FF" font-family="sans-serif" font-size="14" font-weight="bold" lengthAdjust="spacing" textLength="14" x="42.5" y="147.6748">id</text><text fill="#D9B8FF" font-family="sans-serif" font-size="14" lengthAdjust="spacing" textLength="48" x="56.5" y="147.6748">: string</text><text fill="#D9B8FF" font-family="sans-serif" font-size="14" font-weight="bold" lengthAdjust="spacing" textLength="33" x="42.5" y="173.9717">kind</text><text fill="#D9B8FF" font-family="sans-serif" font-size="14" lengthAdjust="spacing" textLength="48" x="75.5" y="173.9717">: string</text><text fill="#D9B8FF" font-family="sans-serif" font-size="14" font-weight="bold" lengthAdjust="spacing" textLength="90" x="42.5" y="200.2686">last_access</text><text fill="#D9B8FF" font-family="sans-serif" font-size="14" lengthAdjust="spacing" textLength="66" x="132.5" y="200.2686">: duration</text><text fill="#D9B8FF" font-family="sans-serif" font-size="14" font-weight="bold" lengthAdjust="spacing" textLength="90" x="42.5" y="226.5654">last_update</text><text fill="#D9B8FF" font-family="sans-serif" font-size="14" lengthAdjust="spacing" textLength="66" x="132.5" y="226.5654">: duration</text><text fill="#D9B8FF" font-family="sans-serif" font-size="14" font-weight="bold" lengthAdjust="spacing" textLength="48" x="42.5" y="252.8623">mtime</text><text fill="#D9B8FF" font-family="sans-serif" font-size="14" lengthAdjust="spacing" textLength="70" x="90.5" y="252.8623">: datetime</text><text fill="#D9B8FF" font-family="sans-serif" font-size="14" font-weight="bold" lengthAdjust="spacing" textLength="43" x="42.5" y="279.1592">name</text><text fill="#D9B8FF" font-family="sans-serif" font-size="14" lengthAdjust="spacing" textLength="48" x="85.5" y="279.1592">: string</text><text fill="#D9B8FF" font-family="sans-serif" font-size="14" font-weight="bold" lengthAdjust="spacing" textLength="34" x="42.5" y="305.4561">tags</text><text fill="#D9B8FF" font-family="sans-serif" font-size="14" lengthAdjust="spacing" textLength="171" x="76.5" y="305.4561">: dictionary[string, string]</text></g><!--reverse link group to azure_resource_group--><g id="link_group_azure_resource_group"><path codeLine="45" d="M67.9805,525.3983 C83.4505,559.6983 108.84,616 128.69,660.03 " fill="none" id="group-backto-azure_resource_group" style="stroke:#FFAF37;stroke-width:2.0;"/><polygon fill="none" points="60.58,508.99,62.511,527.8651,73.4499,522.9315,60.58,508.99" style="stroke:#FFAF37;stroke-width:2.0;"/></g><!--reverse link microsoft_resource to azure_resource_group--><g id="link_microsoft_resource_azure_resource_group"><path codeLine="46" d="M208.9032,555.9883 C192.0032,593.0583 176.77,626.49 161.55,659.88 " fill="none" id="microsoft_resource-backto-azure_resource_group" style="stroke:#FFAF37;stroke-width:2.0;"/><polygon fill="none" points="216.37,539.61,203.4438,553.4993,214.3627,558.4772,216.37,539.61" style="stroke:#FFAF37;stroke-width:2.0;"/></g><!--reverse link resource to group--><g id="link_resource_group"><path codeLine="47" d="M95.7228,335.3639 C78.6028,395.1239 66.04,438.96 57.44,468.97 " fill="none" id="resource-backto-group" style="stroke:#FFAF37;stroke-width:2.0;"/><polygon fill="none" points="100.68,318.06,89.9548,333.7115,101.4908,337.0163,100.68,318.06" style="stroke:#FFAF37;stroke-width:2.0;"/></g><!--reverse link resource to microsoft_resource--><g id="link_resource_microsoft_resource"><path codeLine="48" d="M194.8047,335.3503 C207.4247,378.9503 215.26,405.98 224.66,438.43 " fill="none" id="resource-backto-microsoft_resource" style="stroke:#FFAF37;stroke-width:2.0;"/><polygon fill="none" points="189.8,318.06,189.0412,337.0185,200.5681,333.682,189.8,318.06" style="stroke:#FFAF37;stroke-width:2.0;"/></g><!--SRC=[XPDDIyD048Rl-HKBteA5Lj5QyQ85qOk8UXC9qzr9kxIx6sOdIltuxswQjcm-hBVadMVUUMT25bgXG5FmMXWqCoIV-AMs1H0OSKtaFgPkvKWSvJdaf-DsyTPP_XTu08FY3bVlo5f2ctXPQBcqwBquYKet89TpSgLLjJqJM1zAQ3cYfYlm_fgPzAnaZCAeoUmYpzjas_JeL8t6vzZ172caBJ8S3jLeqaR-7NLmxptnh3zHZEAZFJZ6JipEY0rrC6L5H24xY-xgVsPy1AMqdOkpI7kgCv55QkZF2r3kew9pMFbuZ6SaTBmkSDhP2YSNAX_tmlT_mOciJYVWioJC2BqhIM9MaONuIjBKW8KvgcosJjFBO4WXLFApxTfXUy5eISwxdFTM6nDac4VjQLgGUzTUEnjUCy_0sEFUi0WXAaIL11pwAeMrgRNGNZq7JVPeMZL6X-CqXJ2BCv0o_32j2PjAMQXjlAXYUkPOCDWm3alNZbfMRK3hrxfsl6NUmghr2Q- -1uD1xqT8UavwW6unlMBNCVa5]--></g></svg>

<svg xmlns="http://www.w3.org/2000/svg" width="353" height="741" viewBox="0 0 353 741"><rect width="225" height="74.086" x="32.5" y="660.14" fill="#3D176E" rx="2.5" ry="2.5" style="stroke:#000d19;stroke-width:.5"/><circle cx="47.5" cy="680.034" r="11" fill="#ADD1B2" style="stroke:#181818;stroke-width:1"/><path d="M50.469 685.675q-.578.297-1.219.438-.64.156-1.344.156-2.5 0-3.828-1.64-1.312-1.657-1.312-4.782t1.312-4.781q1.328-1.657 3.828-1.657.703 0 1.344.157.656.156 1.219.453v2.719q-.625-.579-1.219-.844-.594-.281-1.219-.281-1.343 0-2.031 1.078-.687 1.062-.687 3.156t.687 3.172q.688 1.062 2.031 1.062.625 0 1.219-.265.594-.282 1.219-.86z"/><text x="66.5" y="685.92" fill="#D9B8FF" font-family="Helvetica" font-size="17" textLength="183">azure_resource_group</text><path d="M33.5 699.929h223" style="stroke:#000d19;stroke-width:.5"/><text x="43.5" y="721.924" fill="#D9B8FF" font-family="sans-serif" font-size="14" font-weight="bold" textLength="98">managed_by</text><text x="141.5" y="721.924" fill="#D9B8FF" font-family="sans-serif" font-size="14" textLength="48">: string</text><rect width="90" height="39.789" x="7" y="469.06" fill="#3D176E" rx="2.5" ry="2.5" style="stroke:#000d19;stroke-width:.5"/><circle cx="22" cy="488.954" r="11" fill="#ADD1B2" style="stroke:#181818;stroke-width:1"/><path d="M24.969 494.595q-.578.297-1.219.438-.64.156-1.344.156-2.5 0-3.828-1.64-1.312-1.657-1.312-4.782t1.312-4.781q1.328-1.656 3.828-1.656.703 0 1.344.156.656.156 1.219.453v2.719q-.625-.579-1.219-.844-.594-.281-1.219-.281-1.343 0-2.031 1.078-.687 1.062-.687 3.156t.687 3.172Q21.188 493 22.531 493q.625 0 1.219-.265.594-.281 1.219-.86z"/><text x="41" y="494.84" fill="#D9B8FF" font-family="Helvetica" font-size="17" textLength="48">group</text><rect width="214" height="100.383" x="132" y="438.76" fill="#3D176E" rx="2.5" ry="2.5" style="stroke:#000d19;stroke-width:.5"/><circle cx="153.3" cy="458.654" r="11" fill="#ADD1B2" style="stroke:#181818;stroke-width:1"/><path d="M156.269 464.295q-.578.297-1.219.438-.64.156-1.344.156-2.5 0-3.828-1.64-1.312-1.657-1.312-4.782t1.312-4.781q1.328-1.656 3.828-1.656.703 0 1.344.156.656.156 1.219.453v2.719q-.625-.579-1.219-.844-.594-.281-1.219-.281-1.343 0-2.031 1.078-.687 1.062-.687 3.156t.687 3.172q.688 1.062 2.031 1.062.625 0 1.219-.265.594-.281 1.219-.86z"/><text x="173.7" y="464.54" fill="#D9B8FF" font-family="Helvetica" font-size="17" textLength="158">microsoft_resource</text><path d="M133 478.549h212" style="stroke:#000d19;stroke-width:.5"/><text x="143" y="500.544" fill="#D9B8FF" font-family="sans-serif" font-size="14" font-weight="bold" textLength="35">etag</text><text x="178" y="500.544" fill="#D9B8FF" font-family="sans-serif" font-size="14" textLength="48">: string</text><text x="143" y="526.841" fill="#D9B8FF" font-family="sans-serif" font-size="14" font-weight="bold" textLength="144">provisioning_state</text><text x="287" y="526.841" fill="#D9B8FF" font-family="sans-serif" font-size="14" textLength="48">: string</text><rect width="227" height="310.758" x="31.5" y="7" fill="#3D176E" rx="2.5" ry="2.5" style="stroke:#000d19;stroke-width:.5"/><circle cx="100.25" cy="26.895" r="11" fill="#ADD1B2" style="stroke:#181818;stroke-width:1"/><path d="M103.219 32.535q-.578.297-1.219.438-.64.156-1.344.156-2.5 0-3.828-1.64-1.312-1.657-1.312-4.782t1.312-4.781q1.328-1.656 3.828-1.656.703 0 1.344.156.656.156 1.219.453v2.719q-.625-.578-1.219-.844-.594-.281-1.219-.281-1.344 0-2.031 1.078-.687 1.062-.687 3.156t.687 3.172q.688 1.062 2.031 1.062.625 0 1.219-.265.594-.281 1.219-.86z"/><text x="125.75" y="32.78" fill="#D9B8FF" font-family="Helvetica" font-size="17" textLength="71">resource</text><path d="M32.5 46.789h225" style="stroke:#000d19;stroke-width:.5"/><text x="42.5" y="68.784" fill="#D9B8FF" font-family="sans-serif" font-size="14" font-weight="bold" textLength="29">age</text><text x="71.5" y="68.784" fill="#D9B8FF" font-family="sans-serif" font-size="14" textLength="66">: duration</text><text x="42.5" y="95.081" fill="#D9B8FF" font-family="sans-serif" font-size="14" font-weight="bold" textLength="43">atime</text><text x="85.5" y="95.081" fill="#D9B8FF" font-family="sans-serif" font-size="14" textLength="70">: datetime</text><text x="42.5" y="121.378" fill="#D9B8FF" font-family="sans-serif" font-size="14" font-weight="bold" textLength="43">ctime</text><text x="85.5" y="121.378" fill="#D9B8FF" font-family="sans-serif" font-size="14" textLength="70">: datetime</text><text x="42.5" y="147.675" fill="#D9B8FF" font-family="sans-serif" font-size="14" font-weight="bold" textLength="14">id</text><text x="56.5" y="147.675" fill="#D9B8FF" font-family="sans-serif" font-size="14" textLength="48">: string</text><text x="42.5" y="173.972" fill="#D9B8FF" font-family="sans-serif" font-size="14" font-weight="bold" textLength="33">kind</text><text x="75.5" y="173.972" fill="#D9B8FF" font-family="sans-serif" font-size="14" textLength="48">: string</text><text x="42.5" y="200.269" fill="#D9B8FF" font-family="sans-serif" font-size="14" font-weight="bold" textLength="90">last_access</text><text x="132.5" y="200.269" fill="#D9B8FF" font-family="sans-serif" font-size="14" textLength="66">: duration</text><text x="42.5" y="226.565" fill="#D9B8FF" font-family="sans-serif" font-size="14" font-weight="bold" textLength="90">last_update</text><text x="132.5" y="226.565" fill="#D9B8FF" font-family="sans-serif" font-size="14" textLength="66">: duration</text><text x="42.5" y="252.862" fill="#D9B8FF" font-family="sans-serif" font-size="14" font-weight="bold" textLength="48">mtime</text><text x="90.5" y="252.862" fill="#D9B8FF" font-family="sans-serif" font-size="14" textLength="70">: datetime</text><text x="42.5" y="279.159" fill="#D9B8FF" font-family="sans-serif" font-size="14" font-weight="bold" textLength="43">name</text><text x="85.5" y="279.159" fill="#D9B8FF" font-family="sans-serif" font-size="14" textLength="48">: string</text><text x="42.5" y="305.456" fill="#D9B8FF" font-family="sans-serif" font-size="14" font-weight="bold" textLength="34">tags</text><text x="76.5" y="305.456" fill="#D9B8FF" font-family="sans-serif" font-size="14" textLength="171">: dictionary[string, string]</text><g fill="none"><path d="M67.98 525.398c15.47 34.3 40.86 90.602 60.71 134.632" style="stroke:#ffaf37;stroke-width:2"/><path d="m60.58 508.99 1.931 18.875 10.939-4.933z" style="stroke:#ffaf37;stroke-width:2"/></g><g fill="none"><path d="M208.903 555.988c-16.9 37.07-32.133 70.502-47.353 103.892" style="stroke:#ffaf37;stroke-width:2"/><path d="m216.37 539.61-12.926 13.89 10.919 4.977z" style="stroke:#ffaf37;stroke-width:2"/></g><path fill="none" d="M95.723 335.364C78.603 395.124 66.04 438.96 57.44 468.97m43.24-150.91-10.725 15.651 11.536 3.305z" style="stroke:#ffaf37;stroke-width:2"/><g fill="none"><path d="M194.805 335.35c12.62 43.6 20.455 70.63 29.855 103.08" style="stroke:#ffaf37;stroke-width:2"/><path d="m189.8 318.06-.759 18.959 11.527-3.337z" style="stroke:#ffaf37;stroke-width:2"/></g></svg>
